files/icons/trash.svg

<svg width="25" height="28" viewBox="0 0 25 28" fill="none" xmlns="http://www.w3.org/2000/svg">
<path d="M20.5606 5.1779L19.4482 21.8625C19.3509 23.3237 19.3021 24.0544 18.9866 24.6085C18.7086 25.0962 18.2895 25.4883 17.7843 25.7332C17.2106 26.0112 16.4782 26.0112 15.0136 26.0112H9.44083C7.97625 26.0112 7.24396 26.0112 6.67016 25.7332C6.165 25.4883 5.74586 25.0962 5.46798 24.6085C5.15236 24.0544 5.10365 23.3237 5.00623 21.8625L3.89393 5.1779M1.11615 5.1779H23.3384M17.7828 5.1779L17.407 4.05022C17.0427 2.95741 16.8605 2.41101 16.5227 2.00704C16.2243 1.6503 15.8413 1.37418 15.4085 1.20398C14.9184 1.01123 14.3425 1.01123 13.1906 1.01123H11.2639C10.112 1.01123 9.53615 1.01123 9.04602 1.20398C8.61326 1.37418 8.23015 1.6503 7.93183 2.00704C7.594 2.41101 7.41187 2.95741 7.04759 4.05022L6.67171 5.1779" stroke="white" stroke-width="2" stroke-linecap="round" stroke-linejoin="round"/>
</svg>

<svg width="25" height="28" fill="none" xmlns="http://www.w3.org/2000/svg">
  <path d="m20.56 5.178-1.112 16.684c-.097 1.462-.146 2.192-.461 2.747a2.78 2.78 0 0 1-1.203 1.124c-.573.278-1.306.278-2.77.278H9.44c-1.465 0-2.197 0-2.77-.278a2.779 2.779 0 0 1-1.203-1.125c-.316-.554-.364-1.284-.462-2.745L3.894 5.178m-2.778 0h22.222m-5.555 0-.376-1.128c-.364-1.093-.547-1.639-.884-2.043a2.778 2.778 0 0 0-1.114-.803c-.49-.193-1.067-.193-2.218-.193h-1.927c-1.152 0-1.728 0-2.218.193-.433.17-.816.446-1.114.803-.338.404-.52.95-.884 2.043l-.376 1.128" stroke="#fff" stroke-width="2" stroke-linecap="round" stroke-linejoin="round"/>
</svg>
